lib/flags/m/LBR.svg

<svg xmlns="http://www.w3.org/2000/svg" fill="none" viewBox="0 0 20 15"><mask id="LBR_svg__a" width="20" height="15" x="0" y="0" mask-type="alpha" maskUnits="userSpaceOnUse"><path fill="#fff" d="M0 0H20V15H0z"/></mask><g mask="url(#LBR_svg__a)"><path fill="#F7FCFF" fill-rule="evenodd" d="M0 0H20V15H0V0Z" clip-rule="evenodd"/><path fill="#E31D1C" d="M.017 3.438H20.017V5.313000000000001H.017z"/><path fill="#E31D1C" fill-rule="evenodd" d="M0 0H20V1.875H0V0Z" clip-rule="evenodd"/><path fill="#E31D1C" d="M-.037 6.875H19.963V8.75H-.037z"/><path fill="#E31D1C" d="M.07 10.25H20.07V12.125H.07z"/><path fill="#E31D1C" d="M.063 13.438H20.063V15.313H.063z"/><path fill="#3D58DB" fill-rule="evenodd" d="M0 0H10V8.75H0V0Z" clip-rule="evenodd"/><path fill="#F7FCFF" fill-rule="evenodd" d="M5.08279 5.75818L3.25694 7.02463L3.84037 4.8555L2.5 3.46986L4.31493 3.39494L5.08279 1.25L5.85066 3.39494H7.6625L6.32522 4.8555L6.99495 6.8966L5.08279 5.75818Z" clip-rule="evenodd"/></g></svg>

<svg xmlns="http://www.w3.org/2000/svg" fill="none" viewBox="0 0 20 15"><mask id="LBR_svg__a" width="20" height="15" x="0" y="0" maskUnits="userSpaceOnUse"><path fill="#fff" d="M0 0h20v15H0z"/></mask><g mask="url(#LBR_svg__a)"><path fill="#F7FCFF" fill-rule="evenodd" d="M0 0h20v15H0V0z" clip-rule="evenodd"/><path fill="#E31D1C" d="M.017 3.438h20v1.875h-20z"/><path fill="#E31D1C" fill-rule="evenodd" d="M0 0h20v1.875H0V0z" clip-rule="evenodd"/><path fill="#E31D1C" d="M-.037 6.875h20V8.75h-20zM.07 10.25h20v1.875h-20zm-.007 3.188h20v1.875h-20z"/><path fill="#3D58DB" fill-rule="evenodd" d="M0 0h10v8.75H0V0z" clip-rule="evenodd"/><path fill="#F7FCFF" fill-rule="evenodd" d="M5.083 5.758L3.257 7.025l.583-2.17L2.5 3.47l1.815-.075.768-2.145.768 2.145h1.811l-1.337 1.46.67 2.042-1.912-1.139z" clip-rule="evenodd"/></g></svg>
